X: 1
T: Atlanta Schottische, The
M: 4/4
L: 1/8
R: barndance
K: Amaj
|: (3cd^d | (3e^df (3ecA E2 =F2 | F>f (3=f^fg f2- f>=g |
(3gfg  (3fgf (3efe (3d<F=G |1 G>d c>^B c2  :|2 G>d c>B A2 ||
|: (3CD^D | E>DC>D E2 (3ABc | B>FD>E F>FB>A |
[1 G2 f2 e2- e>B | (3cAF E>F E>D  :|
[2 G2 f2 e2 (3EFG | A>EC>B, A,2 ||
